build/img/icon-instagram.svg

<svg viewBox="0 0 25 25" xmlns="http://www.w3.org/2000/svg">
<path fill-rule="evenodd" clip-rule="evenodd" d="M7.8125 0H17.1875C21.5016 0 25 3.49844 25 7.8125V17.1875C25 21.5016 21.5016 25 17.1875 25H7.8125C3.49844 25 0 21.5016 0 17.1875V7.8125C0 3.49844 3.49844 0 7.8125 0ZM17.1875 22.6562C20.2031 22.6562 22.6562 20.2031 22.6562 17.1875V7.8125C22.6562 4.79688 20.2031 2.34375 17.1875 2.34375H7.8125C4.79688 2.34375 2.34375 4.79688 2.34375 7.8125V17.1875C2.34375 20.2031 4.79688 22.6562 7.8125 22.6562H17.1875Z"/>
<path fill-rule="evenodd" clip-rule="evenodd" d="M6.25 12.5C6.25 9.04844 9.04844 6.25 12.5 6.25C15.9516 6.25 18.75 9.04844 18.75 12.5C18.75 15.9516 15.9516 18.75 12.5 18.75C9.04844 18.75 6.25 15.9516 6.25 12.5ZM8.59375 12.5C8.59375 14.6531 10.3469 16.4062 12.5 16.4062C14.6531 16.4062 16.4062 14.6531 16.4062 12.5C16.4062 10.3453 14.6531 8.59375 12.5 8.59375C10.3469 8.59375 8.59375 10.3453 8.59375 12.5Z"/>
<path d="M19.2187 6.61411C19.6787 6.61411 20.0516 6.24125 20.0516 5.7813C20.0516 5.32135 19.6787 4.94849 19.2187 4.94849C18.7588 4.94849 18.3859 5.32135 18.3859 5.7813C18.3859 6.24125 18.7588 6.61411 19.2187 6.61411Z"/>
</svg>

<svg viewBox="0 0 25 25" xmlns="http://www.w3.org/2000/svg"><path fill-rule="evenodd" clip-rule="evenodd" d="M7.813 0h9.375A7.813 7.813 0 0125 7.813v9.375A7.813 7.813 0 0117.187 25H7.813A7.813 7.813 0 010 17.187V7.813A7.813 7.813 0 017.813 0zm9.375 22.656a5.475 5.475 0 005.468-5.468V7.813a5.475 5.475 0 00-5.468-5.47H7.813a5.475 5.475 0 00-5.47 5.47v9.375a5.475 5.475 0 005.47 5.468h9.375z"/><path fill-rule="evenodd" clip-rule="evenodd" d="M6.25 12.5a6.25 6.25 0 1112.5 0 6.25 6.25 0 01-12.5 0zm2.344 0a3.912 3.912 0 003.906 3.906 3.912 3.912 0 003.906-3.906A3.91 3.91 0 0012.5 8.594 3.91 3.91 0 008.594 12.5z"/><path d="M19.219 6.614a.833.833 0 100-1.666.833.833 0 000 1.666z"/></svg>
